X:540
T:B540-  Your Humble Servant, Madam
Q:1/4=120
L:1/4
M:C
K:A
E|AAcA|ceAA|AEEd|~B2AE|\
AAcA|ceAA|AEEd|B2A|:c/d/|\
e/d/ e/f/ed/c/|d/c/ d/e/dc/B/|cced|~c2.ec/d/|\
e/d/ e/f/ed/c/|d/c/ d/e/dc/B/|ceA/G/ A/B/|~B2A|]
